assets/icons/VizMap/Shield.svg

<svg fill="none" height="96" viewBox="0 0 96 96" width="96" xmlns="http://www.w3.org/2000/svg" xmlns:xlink="http://www.w3.org/1999/xlink"><clipPath id="a"><path d="m8.47388 0h79.052v96h-79.052z"/></clipPath><mask id="b" fill="#fff"><path d="m48.011.0243377c-4.393 3.2247423-9.1267 6.5468323-14.8095 9.7594123-8.8833 5.01355-17.2798 8.57905-24.60541 11.14665-.68145 6.8754 1.30207 32.5517 10.65991 48.3833 9.3578 15.8317 22.415 23.2547 28.755 26.6863v-.0243c6.3278-3.4317 19.3119-10.7451 28.7306-26.6863s11.3414-41.5079 10.6599-48.3833c-7.3256-2.5677-15.7221-6.1331-24.6054-11.14669-5.6828-3.21257-10.4165-6.53467-14.8095-9.75941" fill="#fff"/></mask><g clip-path="url(#a)"><path d="m48.011.0243377c-4.393 3.2247423-9.1267 6.5468323-14.8095 9.7594123-8.8833 5.01355-17.2798 8.57905-24.60541 11.14665-.68145 6.8754 1.30207 32.5517 10.65991 48.3833 9.3578 15.8317 22.415 23.2547 28.755 26.6863v-.0243c6.3278-3.4317 19.3119-10.7451 28.7306-26.6863s11.3414-41.5079 10.6599-48.3833c-7.3256-2.5677-15.7221-6.1331-24.6054-11.14669-5.6828-3.21257-10.4165-6.53467-14.8095-9.75941" fill="#33f"/><path d="m33.2015 9.78375 1.4745 2.61265.0018-.0011zm-24.60541 11.14665-.99231-2.8311-1.80447.6324-.18859 1.9028zm39.41491 75.0696-1.4281 2.6383 4.4281 2.3967v-5.035zm0-.0243-1.4302-2.6372-1.5698.8513v1.7859zm39.3905-75.0696 2.9854-.2959-.1886-1.9028-1.8045-.6325zm-24.6054-11.14669-1.4763 2.61159.0018.001zm-16.5604-12.15343c-4.3558 3.197496-8.9794 6.43934-14.5106 9.56619l2.9527 5.22313c5.8345-3.29827 10.6784-6.70061 15.1084-9.9526zm-14.5087 9.56515c-8.7087 4.91497-16.9405 8.41057-24.12322 10.92817l1.98462 5.6622c7.4685-2.6177 16.0297-6.253 25.0876-11.3651zm-26.11628 13.46337c-.37781 3.8118-.00954 12.2447 1.59337 21.6338 1.60597 9.4071 4.51991 20.1985 9.46931 28.5719l5.1652-3.053c-4.4084-7.4582-7.1652-17.4208-8.7201-26.5286-1.5579-9.1257-1.8407-16.9687-1.537-20.0323zm11.06268 50.2057c9.7825 16.5502 23.4354 24.2939 29.9095 27.7981l2.8561-5.2766c-6.2058-3.359-18.6672-10.4613-27.6004-25.5745zm34.3376 25.1598v-.0243h-6v.0243zm-1.5699 2.6128c6.4569-3.5016 20.0391-11.136 29.8834-27.7974l-5.1658-3.0521c-8.9931 15.221-21.3792 22.2136-27.5779 25.5752zm29.8834-27.7974c4.979-8.427 7.8932-19.2173 9.4921-28.6141 1.5959-9.3792 1.9478-17.7827 1.5703-21.5911l-5.9708.5918c.304 3.0669.0353 10.8845-1.5145 19.9928-1.5468 9.0908-4.3032 19.0544-8.7429 26.5685zm9.0693-52.7405c-7.1827-2.5175-15.4146-6.0131-24.1232-10.92811l-2.949 5.22521c9.0579 5.1122 17.6191 8.7475 25.0876 11.3652zm-24.1213-10.92707c-5.5312-3.12685-10.1548-6.368692-14.5106-9.56619l-3.5505 4.83672c4.43 3.25199 9.2739 6.65433 15.1084 9.95264z" fill="#fff" mask="url(#b)"/></g></svg>

<svg width="96" height="96" viewBox="0 0 96 96" fill="none" xmlns="http://www.w3.org/2000/svg">
    <g clip-path="url(#clip0_162_1238)">
        <mask id="path-1-inside-1_162_1238" fill="white">
            <path
                d="M48.011 0.0243377C43.618 3.24908 38.8843 6.57117 33.2015 9.78375C24.3182 14.7973 15.9217 18.3628 8.59609 20.9304C7.91464 27.8058 9.89816 53.4821 19.256 69.3137C28.6138 85.1454 41.671 92.5684 48.011 96V95.9757C54.3388 92.544 67.3229 85.2306 76.7416 69.2894C86.1603 53.3482 88.083 27.7815 87.4015 20.9061C80.0759 18.3384 71.6794 14.773 62.7961 9.75941C57.1133 6.54684 52.3796 3.22474 47.9866 0" />
        </mask>
        <path
            d="M48.011 0.0243377C43.618 3.24908 38.8843 6.57117 33.2015 9.78375C24.3182 14.7973 15.9217 18.3628 8.59609 20.9304C7.91464 27.8058 9.89816 53.4821 19.256 69.3137C28.6138 85.1454 41.671 92.5684 48.011 96V95.9757C54.3388 92.544 67.3229 85.2306 76.7416 69.2894C86.1603 53.3482 88.083 27.7815 87.4015 20.9061C80.0759 18.3384 71.6794 14.773 62.7961 9.75941C57.1133 6.54684 52.3796 3.22474 47.9866 0"
            fill="#3333FF" />
        <path
            d="M33.2015 9.78375L34.676 12.3964L34.6778 12.3953L33.2015 9.78375ZM8.59609 20.9304L7.60378 18.0993L5.79931 18.7317L5.61072 20.6345L8.59609 20.9304ZM48.011 96L46.5829 98.6383L51.011 101.035V96H48.011ZM48.011 95.9757L46.5808 93.3385L45.011 94.1898V95.9757H48.011ZM87.4015 20.9061L90.3869 20.6102L90.1983 18.7074L88.3938 18.0749L87.4015 20.9061ZM62.7961 9.75941L61.3198 12.371L61.3216 12.372L62.7961 9.75941ZM46.2357 -2.39402C41.8799 0.803476 37.2563 4.04532 31.7251 7.17217L34.6778 12.3953C40.5123 9.09703 45.3562 5.69469 49.7862 2.4427L46.2357 -2.39402ZM31.727 7.17113C23.0183 12.0861 14.7865 15.5817 7.60378 18.0993L9.5884 23.7615C17.0569 21.1438 25.6181 17.5085 34.676 12.3964L31.727 7.17113ZM5.61072 20.6345C5.23291 24.4463 5.60118 32.8792 7.20409 42.2683C8.81006 51.6754 11.724 62.4668 16.6734 70.8402L21.8386 67.7872C17.4302 60.329 14.6734 50.3664 13.1185 41.2586C11.5606 32.1329 11.2778 24.2899 11.5815 21.2263L5.61072 20.6345ZM16.6734 70.8402C26.4559 87.3904 40.1088 95.1341 46.5829 98.6383L49.439 93.3617C43.2332 90.0027 30.7718 82.9004 21.8386 67.7872L16.6734 70.8402ZM51.011 96V95.9757H45.011V96H51.011ZM49.4411 98.6128C55.898 95.1112 69.4802 87.4768 79.3245 70.8154L74.1587 67.7633C65.1656 82.9843 52.7795 89.9769 46.5808 93.3385L49.4411 98.6128ZM79.3245 70.8154C84.3035 62.3884 87.2177 51.5981 88.8166 42.2013C90.4125 32.8221 90.7644 24.4186 90.3869 20.6102L84.4161 21.202C84.7201 24.2689 84.4514 32.0865 82.9016 41.1948C81.3548 50.2856 78.5984 60.2492 74.1587 67.7633L79.3245 70.8154ZM88.3938 18.0749C81.2111 15.5574 72.9792 12.0618 64.2706 7.14679L61.3216 12.372C70.3795 17.4842 78.9407 21.1195 86.4092 23.7372L88.3938 18.0749ZM64.2725 7.14783C58.7413 4.02098 54.1177 0.779138 49.7619 -2.41836L46.2114 2.41836C50.6414 5.67035 55.4853 9.07269 61.3198 12.371L64.2725 7.14783Z"
            fill="white" mask="url(#path-1-inside-1_162_1238)" />
    </g>
    <defs>
        <clipPath id="clip0_162_1238">
            <rect width="79.052" height="96" fill="white" transform="translate(8.47388)" />
        </clipPath>
    </defs>
</svg>
